X:1
T:[ID 2-103]
T:[ID 2-103]
T:Bezeichnung standardisiert: Polonaise Polonoise con Trio \"Ahnlich in anderer Quelle: Polonoise - Hs. \"OVLA E-97/E-149 um 1750 (Anm. S. Wascher);
T:Urheber unbekannt Datum in der hier transkribierten schriftlichen Quelle: 1767
C:Urheber unbekannt
C:Datum in der hier transkribierten schriftlichen Quelle: 1767
%%score ( 1 2 )
L:1/8
M:3/4
K:Bb
V:1 treble 
V:2 treble 
V:1
 f2 g2 a2 | b/f/f d/f/f (B/A/)(c/B/) | B d2 f2 d/f/ | ee/d/{d} c4 :: Ac z ced | Bd z dfd | %6
 Ac z ced | d/c/B/A/{A} B4 :|[M:3/4]"^Trio" !fermata!F2 F/G/F/E/ D/E/D/C/ | B,B/c/ dBdB | %10
 F2 F/G/F/E/ D/E/D/C/ | B,B/A/ B2 B,2 :: EEEEEE | D/E/F/G/ F/E/D/C/ B,2 | %14
 f2 (f/g/)(f/e/) (d/e/)(d/c/) | B/c/B/A/ B2 B,2 :| %16
V:2
 x6 | x6 | x6 | x6 :: x6 | x6 | x6 | x6 :|[M:3/4] x6 | x6 | x6 | x6 :: CCCCCC | x6 | x6 | x6 :| %16

